images_sukapura_svg/cmd/sc_color.svg

<svg viewBox="0 0 16 16" xmlns="http://www.w3.org/2000/svg"><path d="m10.853105 10.528561h-5.377966l-1.0944633 3.207909h-2.3210168l5.0477399-13.73740031h2.1700564l4.9911298 13.73740031h-2.330452zm-4.7175141-1.9153109h4.0664971l-1.990791-5.8685873h-.05661z" fill="#4b4b4f" transform="scale(.98117648 1.0191846)"/></svg>

<?xml version="1.0" encoding="UTF-8" standalone="no"?>
<svg
   xmlns:dc="http://purl.org/dc/elements/1.1/"
   xmlns:cc="http://creativecommons.org/ns#"
   xmlns:rdf="http://www.w3.org/1999/02/22-rdf-syntax-ns#"
   xmlns:svg="http://www.w3.org/2000/svg"
   xmlns="http://www.w3.org/2000/svg"
   xmlns:sodipodi="http://sodipodi.sourceforge.net/DTD/sodipodi-0.dtd"
   xmlns:inkscape="http://www.inkscape.org/namespaces/inkscape"
   viewBox="0 0 16 16"
   version="1.1"
   id="svg16490"
   sodipodi:docname="sc_color.svg"
   inkscape:version="0.92.3 (2405546, 2018-03-11)">
  <metadata
     id="metadata16496">
    <rdf:RDF>
      <cc:Work
         rdf:about="">
        <dc:format>image/svg+xml</dc:format>
        <dc:type
           rdf:resource="http://purl.org/dc/dcmitype/StillImage" />
      </cc:Work>
    </rdf:RDF>
  </metadata>
  <defs
     id="defs16494" />
  <sodipodi:namedview
     pagecolor="#ffffff"
     bordercolor="#666666"
     borderopacity="1"
     objecttolerance="10"
     gridtolerance="10"
     guidetolerance="10"
     inkscape:pageopacity="0"
     inkscape:pageshadow="2"
     inkscape:window-width="1366"
     inkscape:window-height="716"
     id="namedview16492"
     showgrid="true"
     inkscape:zoom="16"
     inkscape:cx="10.275326"
     inkscape:cy="10.56009"
     inkscape:window-x="-8"
     inkscape:window-y="-8"
     inkscape:window-maximized="1"
     inkscape:current-layer="svg16490">
    <inkscape:grid
       type="xygrid"
       id="grid17041" />
  </sodipodi:namedview>
  <g
     aria-label="A"
     transform="scale(0.98117648,1.0191846)"
     style="font-style:normal;font-weight:normal;font-size:19.32293701px;line-height:1.25;font-family:sans-serif;letter-spacing:0px;word-spacing:0px;fill:#4b4b4f;fill-opacity:1;stroke:none;stroke-width:0.48307341"
     id="text14271">
    <path
       d="M 10.853105,10.528561 H 5.475139 L 4.3806757,13.73647 H 2.0596589 L 7.1073988,-9.303093e-4 H 9.2774552 L 14.268585,13.73647 H 11.938133 Z M 6.1355909,8.6132501 H 10.202088 L 8.211297,2.7446628 h -0.05661 z"
       style="font-style:normal;font-variant:normal;font-weight:500;font-stretch:normal;font-family:Roboto;-inkscape-font-specification:'Roboto Medium';fill:#4b4b4f;fill-opacity:1;stroke-width:0.48307341"
       id="path17051" />
  </g>
</svg>
